X: 19
T:(The) Girl I Left Behind Me
M:4/4
L:1/8
C:
R:Key of D
K:D
dc|B2A2F2D2|E2D2B,2A,2|D2D2DEFG|A4F2dc|B2A2F2D2|!
|E2D2B,2D2|C2E2A,2B,C|D4D2A2|B2A2B2c2|d2A2F2A2|B2A2B2c2|!
|d4c2dc|B2A2F2D2|EFEDB,2D2|C2E2A,2B,C|D4D2||
